build/img/sprites/vk_btn.svg

<svg width="52" height="52" viewBox="0 0 52 52" fill="none" xmlns="http://www.w3.org/2000/svg">
<rect width="52" height="52" rx="26" fill="white"/>
<path fill-rule="evenodd" clip-rule="evenodd" d="M35.8267 21.0694C35.9732 20.5811 35.8267 20.2217 35.125 20.2217H32.8079C32.2182 20.2217 31.9464 20.532 31.7989 20.8744C31.7989 20.8744 30.6205 23.7322 28.9514 25.5885C28.4112 26.1268 28.1658 26.2976 27.8709 26.2976C27.7235 26.2976 27.502 26.1268 27.502 25.6377V21.0694C27.502 20.4828 27.3396 20.2217 26.8488 20.2217H23.205C22.8369 20.2217 22.6154 20.4935 22.6154 20.7519C22.6154 21.3072 23.4504 21.436 23.536 22.999V26.3951C23.536 27.14 23.401 27.275 23.1061 27.275C22.3205 27.275 20.4095 24.4038 19.2752 21.1185C19.0554 20.4792 18.833 20.2217 18.2407 20.2217H15.9219C15.2598 20.2217 15.1274 20.532 15.1274 20.8744C15.1274 21.4843 15.913 24.5137 18.7862 28.5206C20.7017 31.2568 23.3983 32.7402 25.8549 32.7402C27.3281 32.7402 27.5099 32.4111 27.5099 31.8433V29.7751C27.5099 29.1161 27.6494 28.9846 28.1163 28.9846C28.4606 28.9846 29.0493 29.1563 30.4246 30.4752C31.9958 32.0392 32.2544 32.7402 33.1389 32.7402H35.456C36.118 32.7402 36.4499 32.4111 36.2592 31.7602C36.0491 31.1128 35.2988 30.173 34.304 29.058C33.7638 28.4231 32.9535 27.7391 32.7072 27.3966C32.3639 26.9575 32.4619 26.7617 32.7072 26.371C32.7072 26.371 35.5319 22.4133 35.8258 21.0694H35.8267Z" fill="#232616"/>
</svg>

<svg width="52" height="52" viewBox="0 0 52 52" fill="none" xmlns="http://www.w3.org/2000/svg"><rect width="52" height="52" rx="26" fill="#fff"/><path fill-rule="evenodd" clip-rule="evenodd" d="M35.827 21.07c.146-.489 0-.848-.702-.848h-2.317c-.59 0-.862.31-1.01.652 0 0-1.177 2.858-2.847 4.715-.54.538-.785.709-1.08.709-.147 0-.369-.171-.369-.66v-4.569c0-.586-.162-.847-.653-.847h-3.644c-.368 0-.59.271-.59.53 0 .555.835.684.921 2.247v3.396c0 .745-.135.88-.43.88-.786 0-2.697-2.871-3.83-6.156-.22-.64-.443-.897-1.035-.897h-2.32c-.661 0-.794.31-.794.652 0 .61.786 3.64 3.66 7.647 1.915 2.736 4.611 4.22 7.068 4.22 1.473 0 1.655-.33 1.655-.898v-2.068c0-.659.14-.79.606-.79.345 0 .933.171 2.309 1.49 1.57 1.564 1.83 2.265 2.714 2.265h2.317c.662 0 .994-.329.803-.98-.21-.647-.96-1.587-1.955-2.702-.54-.635-1.35-1.319-1.597-1.661-.343-.44-.245-.635 0-1.026 0 0 2.825-3.958 3.119-5.302z" fill="#232616"/></svg>
